X: 23
T:Bourre de Cusset
M:2/4
L:1/16
S:French Creek
K:D
A6B2|G6G2|F2E2 F2G2|AGAB AGFG|A6B2|G6G2|!
F2E2 G2F2|1D8:||2D6 FE||D2E2 F2G2|AGAB A2d2|c2d2 e2d2|!
AGAB AGFE|D2E2 F2G2|AGAB A2FG|A2F2 E2F2|1D6FE:||2D8||
